public/themes/sci-fi/server.svg

<?xml version="1.0" encoding="UTF-8" standalone="no"?>
<!-- Uploaded to: SVG Repo, www.svgrepo.com, Generator: SVG Repo Mixer Tools -->

<svg
   version="1.0"
   id="Layer_1"
   width="500"
   height="800"
   viewBox="0 0 40 64"
   enable-background="new 0 0 64 64"
   xml:space="preserve"
   sodipodi:docname="server.svg"
   inkscape:version="1.4.2 (ebf0e940, 2025-05-08)"
   xmlns:inkscape="http://www.inkscape.org/namespaces/inkscape"
   xmlns:sodipodi="http://sodipodi.sourceforge.net/DTD/sodipodi-0.dtd"
   xmlns="http://www.w3.org/2000/svg"
   xmlns:svg="http://www.w3.org/2000/svg"><defs
   id="defs6" /><sodipodi:namedview
   id="namedview6"
   pagecolor="#ffffff"
   bordercolor="#000000"
   borderopacity="0.25"
   inkscape:showpageshadow="2"
   inkscape:pageopacity="0.0"
   inkscape:pagecheckerboard="0"
   inkscape:deskcolor="#d1d1d1"
   inkscape:zoom="0.64297351"
   inkscape:cx="389.59614"
   inkscape:cy="419.92399"
   inkscape:window-width="896"
   inkscape:window-height="245"
   inkscape:window-x="0"
   inkscape:window-y="39"
   inkscape:window-maximized="0"
   inkscape:current-layer="Layer_1" />
<g
   id="g6"
   style="fill:#00a6bd;fill-opacity:1"
   transform="translate(-12)">
	<circle
   fill="#231F20"
   cx="40"
   cy="55"
   r="1"
   id="circle1"
   style="fill:#00a6bd;fill-opacity:1" />
	<circle
   fill="#231F20"
   cx="24"
   cy="55"
   r="1"
   id="circle2"
   style="fill:#00a6bd;fill-opacity:1" />
	<circle
   fill="#231F20"
   cx="32"
   cy="55"
   r="1"
   id="circle3"
   style="fill:#00a6bd;fill-opacity:1" />
	<path
   fill="#231F20"
   d="m 12,60 c 0,2.211 1.789,4 4,4 h 32 c 2.211,0 4,-1.789 4,-4 V 38 H 12 Z m 28,-8 c 1.657,0 3,1.344 3,3 0,1.656 -1.343,3 -3,3 -1.657,0 -3,-1.344 -3,-3 0,-1.656 1.343,-3 3,-3 z m -8,0 c 1.657,0 3,1.344 3,3 0,1.656 -1.343,3 -3,3 -1.657,0 -3,-1.344 -3,-3 0,-1.656 1.343,-3 3,-3 z m -8,0 c 1.657,0 3,1.344 3,3 0,1.656 -1.343,3 -3,3 -1.657,0 -3,-1.344 -3,-3 0,-1.656 1.343,-3 3,-3 z"
   id="path3"
   style="fill:#00a6bd;fill-opacity:1" />
	<path
   fill="#231F20"
   d="M 12,24 H 52 V 14 H 12 Z m 9,-6 h 22 c 0.553,0 1,0.447 1,1 0,0.553 -0.447,1 -1,1 H 21 c -0.553,0 -1,-0.447 -1,-1 0,-0.553 0.447,-1 1,-1 z"
   id="path4"
   style="fill:#00a6bd;fill-opacity:1" />
	<path
   fill="#231F20"
   d="M 12,36 H 52 V 26 H 12 Z m 9,-6 h 22 c 0.553,0 1,0.447 1,1 0,0.553 -0.447,1 -1,1 H 21 c -0.553,0 -1,-0.447 -1,-1 0,-0.553 0.447,-1 1,-1 z"
   id="path5"
   style="fill:#00a6bd;fill-opacity:1" />
	<path
   fill="#231F20"
   d="M 48,0 H 16 c -2.211,0 -4,1.789 -4,4 v 8 H 52 V 4 C 52,1.789 50.211,0 48,0 Z M 43,8 H 21 C 20.447,8 20,7.553 20,7 20,6.447 20.447,6 21,6 h 22 c 0.553,0 1,0.447 1,1 0,0.553 -0.447,1 -1,1 z"
   id="path6"
   style="fill:#00a6bd;fill-opacity:1" />
</g>
</svg>

<?xml version="1.0" encoding="UTF-8" standalone="no"?>
<!-- Uploaded to: SVG Repo, www.svgrepo.com, Generator: SVG Repo Mixer Tools -->

<svg
   version="1.0"
   id="Layer_1"
   width="800px"
   height="800px"
   viewBox="0 0 64 64"
   enable-background="new 0 0 64 64"
   xml:space="preserve"
   sodipodi:docname="server.svg"
   inkscape:version="1.4.2 (ebf0e940, 2025-05-08)"
   xmlns:inkscape="http://www.inkscape.org/namespaces/inkscape"
   xmlns:sodipodi="http://sodipodi.sourceforge.net/DTD/sodipodi-0.dtd"
   xmlns="http://www.w3.org/2000/svg"
   xmlns:svg="http://www.w3.org/2000/svg"><defs
   id="defs6" /><sodipodi:namedview
   id="namedview6"
   pagecolor="#ffffff"
   bordercolor="#000000"
   borderopacity="0.25"
   inkscape:showpageshadow="2"
   inkscape:pageopacity="0.0"
   inkscape:pagecheckerboard="0"
   inkscape:deskcolor="#d1d1d1"
   inkscape:zoom="0.64297351"
   inkscape:cx="537.34718"
   inkscape:cy="419.92399"
   inkscape:window-width="1712"
   inkscape:window-height="971"
   inkscape:window-x="0"
   inkscape:window-y="39"
   inkscape:window-maximized="1"
   inkscape:current-layer="Layer_1" />
<g
   id="g6"
   style="fill:#00a6bd;fill-opacity:1">
	<circle
   fill="#231F20"
   cx="40"
   cy="55"
   r="1"
   id="circle1"
   style="fill:#00a6bd;fill-opacity:1" />
	<circle
   fill="#231F20"
   cx="24"
   cy="55"
   r="1"
   id="circle2"
   style="fill:#00a6bd;fill-opacity:1" />
	<circle
   fill="#231F20"
   cx="32"
   cy="55"
   r="1"
   id="circle3"
   style="fill:#00a6bd;fill-opacity:1" />
	<path
   fill="#231F20"
   d="M12,60c0,2.211,1.789,4,4,4h32c2.211,0,4-1.789,4-4V38H12V60z M40,52c1.657,0,3,1.344,3,3s-1.343,3-3,3   s-3-1.344-3-3S38.343,52,40,52z M32,52c1.657,0,3,1.344,3,3s-1.343,3-3,3s-3-1.344-3-3S30.343,52,32,52z M24,52   c1.657,0,3,1.344,3,3s-1.343,3-3,3s-3-1.344-3-3S22.343,52,24,52z"
   id="path3"
   style="fill:#00a6bd;fill-opacity:1" />
	<path
   fill="#231F20"
   d="M12,24h40V14H12V24z M21,18h22c0.553,0,1,0.447,1,1s-0.447,1-1,1H21c-0.553,0-1-0.447-1-1S20.447,18,21,18z   "
   id="path4"
   style="fill:#00a6bd;fill-opacity:1" />
	<path
   fill="#231F20"
   d="M12,36h40V26H12V36z M21,30h22c0.553,0,1,0.447,1,1s-0.447,1-1,1H21c-0.553,0-1-0.447-1-1S20.447,30,21,30z   "
   id="path5"
   style="fill:#00a6bd;fill-opacity:1" />
	<path
   fill="#231F20"
   d="M48,0H16c-2.211,0-4,1.789-4,4v8h40V4C52,1.789,50.211,0,48,0z M43,8H21c-0.553,0-1-0.447-1-1s0.447-1,1-1   h22c0.553,0,1,0.447,1,1S43.553,8,43,8z"
   id="path6"
   style="fill:#00a6bd;fill-opacity:1" />
</g>
</svg>
